X:1
T:The Golden Rule, CMD
T:The Golden Rule, CMD
T:Zimmerman, 1869
T:Public Domain Courtesy of the Cyber Hymnal™
C:Zimmerman, 1869
Z:Public Domain
Z:Courtesy of the Cyber Hymnal™
%%score ( 1 2 ) 3
L:1/8
Q:1/4=102
M:6/8
K:Bb
V:1 treble 
V:2 treble 
V:3 bass 
V:1
 [DF] | [Fd]2 [Fd] [Fd]2 [FB] | (cB)[EG] [DF]2 [DF] | [DB]2 [DB] ([FB][Ac])[Bd] | [Ac]3- [Ac]2 F | %5
 [Fd]2 [Fd] [Fd]2 [FB] | (cB)[EG] [DF]2 [DF] | [DB]2 [DB] [CA][DB][Ec] | [DB]3- [DB]2 [FB] | %9
 [Ac]2 [Ac] [Ac]2 [Ac] | [Bd]2 [Fd] [Fd]2 [Fd] | [Ge]2 [Fd] (dc)[GB] | [Ac]3- [Ac]2 F | %13
 [Fd]2 [Fd] [Fd]2 [FB] | (cB)[EG] [DF]2 [DF] | [DB]2 [DB] ([CA][DB])[Ec] | [DB]3- [DB]2 |] %17
V:2
 x | x6 | G2 x4 | x6 | x5 F | x6 | G2 x4 | x6 | x6 | x6 | x6 | x3 G2 x | x5 F | x6 | G2 x4 | x6 | %16
 x5 |] %17
V:3
 B,, | B,,2 B,, B,,2 D, | E,2 E, B,,2 B,, | B,,2 B,, (D,C,)B,, | F,3- F,2 F, | B,,2 B,, B,,2 D, | %6
 E,2 E, B,,2 B,, | F,2 F, F,2 F, | B,,3- B,,2 D, | F,2 F, F,2 F, | B,2 B, B,2 B,, | E,2 B, G,2 G, | %12
 F,3- F,2 F, | B,,2 B,, B,,2 D, | E,2 E, B,,2 B,, | F,2 F, F,2 F, | B,,3- B,,2 |] %17

